assets/img/braze_icons/log-out-01-alt.svg

<svg fill="none" height="24" viewBox="0 0 24 24" width="24" xmlns="http://www.w3.org/2000/svg"><g fill="#801ed7"><path d="m7.46928 2.03699c-.23566-.03732-.49767-.03716-.8022-.03696l-.14963.00001c-.47697-.00016-.83046-.00027-1.14321.04926-1.71157.27109-3.05393 1.61344-3.32502 3.32501-.04953.31276-.04942.66625-.04926 1.14322v10.96507c-.00016.4769-.00027.8304.04926 1.1432.27109 1.7116 1.61345 3.0539 3.32502 3.325.31273.0495.6662.0494 1.14313.0493h.14971c.30452.0002.56654.0003.8022-.037 1.28368-.2033 2.29045-1.2101 2.49376-2.4937.03736-.2357.03716-.4977.03696-.8022v-2.6672c0-.5523-.44772-1-1-1-1.65685 0-3-1.3431-3-3s1.34315-3 3-3c.55228 0 1-.44772 1-1v-2.66706c.0002-.30451.0004-.56653-.03696-.80219-.20331-1.28368-1.21008-2.29044-2.49376-2.49376z"/><path d="m15.2929 6.29289c.3905-.39052 1.0237-.39052 1.4142 0l5 5.00001c.3905.3905.3905 1.0237 0 1.4142l-5 5c-.3905.3905-1.0237.3905-1.4142 0s-.3905-1.0237 0-1.4142l3.2929-3.2929h-9.5858c-.55228 0-1-.4477-1-1s.44772-1 1-1h9.5858l-3.2929-3.29289c-.3905-.39053-.3905-1.02369 0-1.41422z"/></g></svg>

<svg width="24" height="24" viewBox="0 0 24 24" fill="none" xmlns="http://www.w3.org/2000/svg">
<path d="M7.46928 2.03699C7.23362 1.99967 6.97161 1.99983 6.66708 2.00003L6.51745 2.00004C6.04048 1.99988 5.68699 1.99977 5.37424 2.0493C3.66267 2.32039 2.32031 3.66274 2.04922 5.37431C1.99969 5.68707 1.9998 6.04056 1.99996 6.51753V17.4826C1.9998 17.9595 1.99969 18.313 2.04922 18.6258C2.32031 20.3374 3.66267 21.6797 5.37424 21.9508C5.68697 22.0003 6.04044 22.0002 6.51737 22.0001L6.66708 22.0001C6.9716 22.0003 7.23362 22.0004 7.46928 21.9631C8.75296 21.7598 9.75973 20.753 9.96304 19.4694C10.0004 19.2337 10.0002 18.9717 10 18.6672V16C10 15.4477 9.55228 15 9 15C7.34315 15 6 13.6569 6 12C6 10.3431 7.34315 9 9 9C9.55228 9 10 8.55228 10 8V5.33294C10.0002 5.02843 10.0004 4.76641 9.96304 4.53075C9.75973 3.24707 8.75296 2.24031 7.46928 2.03699Z" fill="#801ED7"/>
<path d="M15.2929 6.29289C15.6834 5.90237 16.3166 5.90237 16.7071 6.29289L21.7071 11.2929C22.0976 11.6834 22.0976 12.3166 21.7071 12.7071L16.7071 17.7071C16.3166 18.0976 15.6834 18.0976 15.2929 17.7071C14.9024 17.3166 14.9024 16.6834 15.2929 16.2929L18.5858 13H9C8.44772 13 8 12.5523 8 12C8 11.4477 8.44772 11 9 11H18.5858L15.2929 7.70711C14.9024 7.31658 14.9024 6.68342 15.2929 6.29289Z" fill="#801ED7"/>
</svg>
